!!!COM: Bach, Johann Sebastian
!!!OTL: 153. Alle Menschen muessen sterben
!!!ONM: No. 153
!!!OCL: Erk
!!!SCA: BWV 262
!!!YOE: Riemenschneider, Albert
!!!OPR: 371 Harmonized Chorales and 69 Chorale Melodies with Figured Bass
!!!OPT: Bach Chorale Harmonizations
**harm	**root	**kern	**kern	**kern	**kern
!	!	!bass	!tenor	!alto	!sprno
*Iorgan	*Iorgan	*Iorgan	*Iorgan	*Iorgan	*Iorgan
*>[A,A,B]	*>[A,A,B]	*>[A,A,B]	*>[A,A,B]	*>[A,A,B]	*>[A,A,B]
*>norep[A,B]	*>norep[A,B]	*>norep[A,B]	*>norep[A,B]	*>norep[A,B]	*>norep[A,B]
*>A	*>A	*>A	*>A	*>A	*>A
*k[f#c#g#]	*k[f#c#g#]	*k[f#c#g#]	*k[f#c#g#]	*k[f#c#g#]	*k[f#c#g#]
*A:	*A:	*A:	*A:	*A:	*A:
*met(c)	*met(c)	*met(c)	*met(c)	*met(c)	*met(c)
*M4/4	*M4/4	*M4/4	*M4/4	*M4/4	*M4/4
*MM60	*MM60	*MM60	*MM60	*MM60	*MM60
=1-	=1-	=1-	=1-	=1-	=1-
I	4DD	4AA	4C#	4A	4e
vi	4BB	4FF#	8C#	4A	4a
.	.	.	8D	.	.
Ib	4DD	4CC#	4E	4A	4e
IV	4GG	4DD	8D	4A	4f#
.	.	.	8C#	.	.
=2	=2	=2	=2	=2	=2
V	4AA	4EE	8BB	4A	4.e
.	.	.	8AA	.	.
V	4AA	4EE	4BB	4G#	.
.	.	.	.	.	8d
I	4DD	4AAA	4AA	4A	4c#
I;	4DD;	4AAA;	4AA;	4A;	4c#;
=3	=3	=3	=3	=3	=3
I	4DD	4AA	4C#	4A	4e
I	4DD	4AA	4C#	8A	4e
.	.	.	.	8G#	.
ii	4EE	4BB	4D	8F#	4d
.	.	.	.	8G#	.
Ib	4DD	4C#	4E	[4A	4c#
=4	=4	=4	=4	=4	=4
ii7b	4EE	8D	4F#	4A]	4.B
.	.	8BB	.	.	.
V	4AA	8E	8.E	4G#	.
.	.	8EE	.	.	8A
.	.	.	16D	.	.
I;	2DD;	2AA;	2C#;	2A;	2A;
=5:|!	=5:|!	=5:|!	=5:|!	=5:|!	=5:|!
*>B	*>B	*>B	*>B	*>B	*>B
V	4AA	4EE	4E	4G#	4B
V	4AA	4EE	4E	4G#	4B
I	4DD	4AA	4E	4A	8c#
.	.	.	.	.	8d#
iii	4FF#	8C#	4E	4G#	4e
.	.	8BB	.	.	.
=6	=6	=6	=6	=6	=6
!!linebreak: 2
vi7b	4BB	4AA	4F#	4c#	4.e
V/V	4EE	4BB	4F#	8B	.
.	.	.	.	8A	8d#
V	4AA	2EE;	4E	4G#	4e
V;	4AA;	.	4E;	4G#;	4e;
=7	=7	=7	=7	=7	=7
ii	2EE	2BB	4.D	8B	4.f#
.	.	.	.	8c#	.
.	.	.	.	4d	.
.	.	.	8E	.	8g#
vi	4BB	8FF#	[2F#	4c#	4a
.	.	8GG#	.	.	.
vib	4BB	8AA	.	4c#	4a
.	.	8BB	.	.	.
=8	=8	=8	=8	=8	=8
V/vi	2FF#	2C#	4F#]	4.c#	4.g#
.	.	.	4E#	.	.
.	.	.	.	8B	8g#
vi	4BB	2FF#;	2F#;	4A	4f#
vi;	4BB;	.	.	4A;	4f#;
=9	=9	=9	=9	=9	=9
I	4DD	4AA	4E	4A	4c#
I	4DD	4AA	4E	4A	4c#
IV	4GG	4DD	8D	4A	4f#
.	.	.	8C#	.	.
V	4AA	4EE	4BB	4G#	4e
=10	=10	=10	=10	=10	=10
vi7	4BB	2FF#	8AA	4A	4e
.	.	.	8C#	.	.
V7c/V	4EE	.	8BB	4A	4d#
.	.	.	8AA	.	.
V;	2AA;	2EE;	2BB;	2G#;	2e;
=11	=11	=11	=11	=11	=11
IV	4GG	4DD	4D	4A	4f#
I	4DD	4AA	4C#	8A	4e
.	.	.	.	8G#	.
ii	4EE	4BB	4D	8F#	4d
.	.	.	.	8G#	.
Ib	4DD	4C#	4E	4A	4c#
=12	=12	=12	=12	=12	=12
ii7b	4EE	8D	4F#	4A	4.B
.	.	8BB	.	.	.
V	4AA	8E	8.E	4G#	.
.	.	8EE	.	.	8A
.	.	.	16D	.	.
I;	2DD;	2AA;	2C#;	2A;	2A;
==	==	==	==	==	==
*-	*-	*-	*-	*-	*-
!!!CDT: 1685/3//-1750/7/28
!!!OCY: Deutschland
!!!AGN: chorale
!!!AST: Baroque
!!!AIN: vox
!!!YOY: 1941
!!!PPP: New York; London
!!!PPR: G. Schirmer
!!!ENC: David Huron
!!!EED: David Huron
!!!YEN: United States of America
!!!YER: 1992
!!!YEC: Copyright 1992 David Huron
!!!YEM: Rights to all derivative electronic formats reserved.
!!!YER: March 20, 1996
!!!AMT: simple quadruple
!!!EEV: 1.1
!!chor2scor: -l 2 -s 0.6 -o %b.pmx
